7Days:d=16,o=6,b=140:g#,d#,8a#5,g#,d#,8a#5,g#,d#,8a#5,g#,d#,8a#5,f,1p5,g#,d#,8a#5,g#,d#,8a#5,g#,d#,8a#5,g#,d#,8a#5,f,1p5,g#,d#,8c,g#,d#,8c,g#,d#,8c,g#,d#,8c,f,1p5,g#,d#,8c,g#,d#,8c,g#,d#,8c,g#,d#,8c,f,1p5,d#,c,8g#5,d#,c,8g#5,d#,c,8g#5,d#,c,8g#5,f,1p5,d#,c,8g#5,d#,c,8g#5,d#,c,8g#5,d#,c,8g#5,f,1p5,d#,c#,8a#5,d#,c#,8a#5,d#,c#,8a#5,d#,c#,8a#5,f,1p5,d#,c#,8a#5,d#,c#,8a#5,d#,c#,8a#5,d#,c#,8a#5,f.
