Axel:d=8,o=5,b=125:16g,16g,a#.,16g,16p,16g,c6,g,f,4g,d.6,16g,16p,16g,d#6,d6,a#,g,d6,g6,16g,16f,16p,16f,d,a#,2g,4p,16f6,d6,c6,a#,4g,a#.,16g,16p,16g,c6,g,f,4g,d.6,16g,16p,16g,d#6,d6,a#,g,d6,g6,16g,16f,16p,16f,d,a#,2g
