Dangerman:d=4,o=6,b=355:a.,8g,a,8a,p,8a5,8p,d,p,a.,8g,a,8a,p,8a5,8p,d,p,a,a,a#,a#,a#,a#,a#,a#,a#,c7,2a,p,8a5,8p,d,p,a.,8g,a,8a,p,8a5,8p,d,p,a.,8g,a,8a,p,8a5,8p,d,p,a,a,a#,a#,a#,a#,a#,a#,a#,c7,2d7,p,8a5,8p,d,p,a.,8a,2a#.,8a#5,8p,d#,2p,a#,2a#,2f#,2d#,a#.,8a#,2b.,8b5,8p,e,2p,b,2b,2g,2e,b.,8d7,1e.7,e7,8e7,8e7,e7,f7,f7,f7,f7,f7,f7,f7,d7,e.7,8p,b,1e.7
