Henrys Cat:d=8,o=6,b=355:g,p,d,p,d7,p,b5,p,16b5,16b,p,16c,16g,p,d,p,g,p,d,p,d7,p,b,p,16b5,16g,p,16c,16a,p,c,p,b,p,c,p,g,p,d,p,d7,p,b5,p,16b5,16b,p,16c,16g,p,d,p,g,p,d,p,d7,p,b,p,16b5,16g,p,16c,16a,p,c,p,b,p,c,p,16b5,b,16p,16b5,b,16p,16b5,b,16p,16b5,b,16p,16b5,b,16p,16b5,b,16p,16b5,b,16p,16b5,b,16p,16b5,b,16p,16c,c7,16p,16c#,d7,16p,16d,d#7,16p,16e7,e
