Match of the day:d=8,o=5,b=100:c,f,a,c.6,16a,a,a,a,4a,a#,c.6,16a,g,a,a#,c,e,g,a#.,16g,g,g,g,4g,a,a#.,16g,f,g,a,c,f,a,c.6,16a,a,a,a,4a,a#,c.6,16a,a#,c6,4d6,d6,e6,f6,16f6,e6,16e6,d6,f6,c6,c6,d6,c6,16a#,a,16a,g,4f
