MyHumps:d=4,o=5,b=125:4a,4b,4c6,4.b,4.a,4p,16a6,16p,16a6,16p,16a6,16p,16a6,16p,8f6,16e6,16p,8f6,16e6,8p,16p,16d6,16p,8d6,16e6,16p,8f6,16e6,16p,8f6,16e6,4p,16p,4a,4b,4c6,4.b,4.a,4p,16a6,16p,16a6,16p,16a6,16p,16a6,16p,8f6,1111
