Pinky and the Brain:d=16,o=6,b=200:b.5,p,8e.,p,d#.,p,8e.,p,g.,p,4d#.,4p,b.5,p,8e.,p,d#.,p,8e.,p,g.,p,4d#.,4p,4e,8p,8e.,p,g.,p,8a#.,p,4a#,8p,a#.,p,8b.,p,a.,p,4g,8p,4f#,4p,e.,p,8a.,p,g#.,p,8a.,p,b.,p,4g#,4p,e.,p,8a.,p,g#.,p,8a.,p,b.,p,4g#,4p,c.,p,8b.5,p,8b.5,8p,b.5,p
