Popcorn:d=16,o=5,b=160:a,p,g,p,a,p,e,p,c,p,e,p,8a4,8p,a,p,g,p,a,p,e,p,c,p,e,p,8a4,8p,a,p,b,p,c6,p,b,p,c6,p,a,p,b,p,a,p,b,p,g,p,a,p,g,p,a,p,f,8a,8p,a,p,g,p,a,p,e,p,c,p,e,p,8a4,8p,a,p,g,p,a,p,e,p,c,p,e,p,8a4,8p,a,p,b,p,c6,p,b,p,c6,p,a,p,b,p,a,p,b,p,g,p,a,p,g,p,a,p,b,4c6
