Smurfs:d=4,o=5,b=200:2c6,f.6,8c6,d6,a#,2g,c.6,8a,f,a,2g,p,16g,16a,16a#,16b,2c6,f.6,8c6,d6,a#,2g,c.6,8a,a#,e,2f,p,16g,16a,16a#,16b,2c6,f.6,8c6,d6,a#,2g,c.6,8a,f,a,2g,p,16g,16a,16a#,16b,2c6,f.6,8c6,d6,a#,2g,c.6,8a,a#,e,2f.,1p
