Sorcerers Apprentice:d=18,o=6,b=125:4c,4g,g.5,a.5,b.5,c.,12p,d#.,c.,12p,d#.,d.,c.,b.5,c.,12p,d#.,c.,12p,d#.,d.,c.,b.5,c.,12p,d#.,c.,d#.,d.,c.,d.,d#.,d.,f.,d#.,d.,12p,f#.,c.,12p,d#.,d.,f.,d#.,d.,12p,f#.,c.,12p,d#.,d.,d#.,f.,g.,g.,g.,g.,g.,g.,2g.
