Waltons:d=4,o=5,b=120:8d,8d,g,a,b,1b.,2p,8d,8d,g,a,b,2b,1c#.6,8a,8a,e6,d6,c#6,2d.6,1a,p,8a,8a,a,b.,8c6,1b.,2p,8d,8d,g,a,b,1b.,2p,8d,8d,g,a,b,2b,1c#.6,8a,8a,e6,d6,c#6,2d.6,1a,p,8a,8a,a,b.,8a,1g.,2p,a,2b,d6,2e.6,2f.6,2g6,8e6,8e6,g6,f6,e6,1d.6,2p,8d6,8d6,f6,e6,d6,1a.,2p,8a,8b,c6,d6,c6,1b.,2p,a,2b,d6,2e.6,2f.6,2g.6,g6,f#6,e6,2g.6,1d6,p,8d6,8d6,g6,f6,e6,1c.6,2p,8a,8a,d6,c6,b,1g.,2p,8d,8d,g,a,b,1b.,2p,8d,8d,g,a,b,2b,1c#.6,8a,8a,e6,d6,c#6,2d.6,1a,p,8a,8a,a,b.,8a,1g..
