While Shepards Watch:d=16,o=5,b=120:4a,8p,32p,a,p,8g.,32p,4f,8a#.,p,8a#.,p,8a.,p,4g,32p,8a.,32p,8c.6,p,32p,8c.6,p,8b,8p,2c.6,4a,4p,8p,c.6,32p,4a#,8a.,32p,4g,32p,8f.,32p,4e,4a,4g,32p,8f.,p,8f.,p,8e.,p,2f.
